package/converter/svg/solid/line-columns.svg

<svg xmlns="http://www.w3.org/2000/svg" viewBox="0 0 512 512"><!-- Font Awesome Pro 6.0.0-alpha2 by @fontawesome - https://fontawesome.com License - https://fontawesome.com/license (Commercial License) --><path d="M480 288H320C302.327 288 288 302.327 288 320V320C288 337.673 302.327 352 320 352H480C497.673 352 512 337.673 512 320V320C512 302.327 497.673 288 480 288ZM480 416H320C302.327 416 288 430.327 288 448V448C288 465.673 302.327 480 320 480H480C497.673 480 512 465.673 512 448V448C512 430.327 497.673 416 480 416ZM480 160H320C302.327 160 288 174.327 288 192V192C288 209.673 302.327 224 320 224H480C497.673 224 512 209.673 512 192V192C512 174.327 497.673 160 480 160ZM480 32H320C302.327 32 288 46.327 288 64V64C288 81.673 302.327 96 320 96H480C497.673 96 512 81.673 512 64V64C512 46.327 497.673 32 480 32ZM192 288H32C14.327 288 0 302.327 0 320V320C0 337.673 14.327 352 32 352H192C209.673 352 224 337.673 224 320V320C224 302.327 209.673 288 192 288ZM192 416H32C14.327 416 0 430.327 0 448V448C0 465.673 14.327 480 32 480H192C209.673 480 224 465.673 224 448V448C224 430.327 209.673 416 192 416ZM192 32H32C14.327 32 0 46.327 0 64V64C0 81.673 14.327 96 32 96H192C209.673 96 224 81.673 224 64V64C224 46.327 209.673 32 192 32ZM192 160H32C14.327 160 0 174.327 0 192V192C0 209.673 14.327 224 32 224H192C209.673 224 224 209.673 224 192V192C224 174.327 209.673 160 192 160Z"/></svg>

<svg xmlns="http://www.w3.org/2000/svg" viewBox="0 0 512 512"><!--! Font Awesome Pro 6.6.0 by @fontawesome - https://fontawesome.com License - https://fontawesome.com/license (Commercial License) Copyright 2024 Fonticons, Inc. --><path d="M224 64c0-17.7-14.3-32-32-32L32 32C14.3 32 0 46.3 0 64S14.3 96 32 96l160 0c17.7 0 32-14.3 32-32zm0 128c0-17.7-14.3-32-32-32L32 160c-17.7 0-32 14.3-32 32s14.3 32 32 32l160 0c17.7 0 32-14.3 32-32zM0 320c0 17.7 14.3 32 32 32l160 0c17.7 0 32-14.3 32-32s-14.3-32-32-32L32 288c-17.7 0-32 14.3-32 32zM224 448c0-17.7-14.3-32-32-32L32 416c-17.7 0-32 14.3-32 32s14.3 32 32 32l160 0c17.7 0 32-14.3 32-32zM288 64c0 17.7 14.3 32 32 32l160 0c17.7 0 32-14.3 32-32s-14.3-32-32-32L320 32c-17.7 0-32 14.3-32 32zM512 192c0-17.7-14.3-32-32-32l-160 0c-17.7 0-32 14.3-32 32s14.3 32 32 32l160 0c17.7 0 32-14.3 32-32zM288 320c0 17.7 14.3 32 32 32l160 0c17.7 0 32-14.3 32-32s-14.3-32-32-32l-160 0c-17.7 0-32 14.3-32 32zM512 448c0-17.7-14.3-32-32-32l-160 0c-17.7 0-32 14.3-32 32s14.3 32 32 32l160 0c17.7 0 32-14.3 32-32z"/></svg>
